X:2047
T:Forty years of fun
O:England
M:2/4
L:1/8
Q:1/4=120
K:G
V:1
"G" [G2Bd Hf]"D7" D2  |:"G" GB/B/ Bd |"D7" cA A3/2 c/|"G" BG GB |
"D7" Ad d/c/B/A/ |"G" GB/B/ Bd |"Am" cA "D7" Ac |"G" BG "D7" AF |
|1 "G" G2 zD :|2 "G" G2 zd || |:"G" gf ed |cB AG |
GB d3/2 B/|"Am" cA "D7" A3/2 d/|"G" gf ed |cB AG |
"Em" GB "D7" d3/2 c/|1 "G" BG G3/2 d/:|2 "G" BG Gf/g/ |]|
K:D
"D" a2 fd |A2 df |"A" a(g g)f |g2 ef |
g2 ec |A2 ce |"D" ba2 ^g|a2 fg |
a2 fd |A2 df |"A" a(g g)f |g2 ef |
g2 ec |A2 ce |"D" dd "A" e/d/c |"D" d2 FG || |:
Af/f/ Af/f/ |Af/f/ Af |"A" fe2 _e|e2 EF |
Ge/e/ Ge/e/ |Ge/e/ Ge |"D" ed2 c|d2 FG |
Af/f/ Af/f/ |Af/f/ Af |"G" ag2 e|B2 cd |
"A" f2 ec |A2 ce |"D" dd "A" e/d/c |1 "D" d3 f/g/:|2
"D" d2 "E7" z2 |]
K:A
"A" ee ff |aa f(e |e)a fe |"E" g3 e|
e/g/ fe/g/ f|e/g/ f/e/g g|g/f/ e/g/f c|"A" e4 |
ee/e/ ff/f/ |aa/a/ f(e |e)a ea |"D" f3 a|
a3/2 b/af |"A" e3/2 f/ef |"E" g/f/e/d/ c/d/B |"A" A4 |
EA/A/ EA/A/ |FA/A/ EA/A/ |EA/A/ EA |"E" Be2 e|
B e/e/B e/e/|f e/e/e e/e/|g/f/ e/d/c B|"A" c3 E|
E A/A/E A/A/|F A/A/E A/A/|E A/A/E A|"D" F3 a|
a3/2 b/af |"A" e3/2 f/ef |"E" g/f/e/d/ cB |"A" A4 |]
a3/2 f/ed |cB A2 |]
